X: 21391
M: 2/4
L: 1/16
K: D
V: 1 name="4"
d2AA d2AA | d2A2 z2aa | b2a2f2d2 | a2a2 z2AB |\
cdef g2fe | defg a2gf | edcB Agec | d2f2d2 H|]
dd |\
d2dd d2dd | d2f2a2 d'd' | d'2b2g2 bb | a2f2d2 aa |\
g2e2c2 gg | f2d2A2 ff | e2cc e2BB | e2c2A2 dd |
d2dd d2dd | d2f2a2 d'd' | d'2b2g2 bb | a2f2d2 aa |\
g2e2c2 gg | f2d2A2 ff | e2a2 e2^g2 | a2a2"^D.C."a2 |]


